X: 39448
T: Tarantella Di Masaniello
R: slide
M: 12/8
K: Aminor
|:f/e/^de|f2a e2a d2a Bcd|efe dcB cBA f/e/^de|
f2a e2a d2a Bcd|efe dcB A3:|
|:^ga_b|a^ga _ba=g fed =Bcd|1 efe dcB cBA:|2 efe dcB A3||
|:cBc|ded BAB cdc A^GA|BcB ^G^FG A3:|
K:Amaj
|:z2a|A2a A2a a2^g Bcd|g2f Bcd f2e z2a|
A2a A2a a2^g Bcd|e^de =f^fg a3:|
K:Amin|
|:e2e|edc d2d dcB c2d|efe dcB cBA e2e|
edc d2d dcB c2d|efe dcB A3:|
|:cBc|ded BAB cdc A^GA|BcB ^G^FG A3:|
K:Amaj
|:fe^d|ecA fe^d ecA efg|aga cde f2e fe^d|
edB fe^d e=dB efg|abc' d'fg a3:|

